X: 212
T:Memor esto verbi tui / Portio mea
N: Derived from Jos1714-Memor_esto_verbi_tui.krn
C: Josquin des Prez
%%abc-version 2.0
%%abcx-abcm2ps-target-version 5.9.1 (29 Sep 2008)
%%abc-creator hum2abc beta
%%abcx-conversion-date 2019/02/12 16:15:48
%%abc-edited-by Jesse Rodin
%%abc-edited-by Will Watson 06/09/2011
%%abcx-initial-encoding-date 2011/06/09/
%%humdrum-veritas 1407999647
%%humdrum-veritas-data 967586220
%%linebreak <none>
%%barnumbers 0
L: 1/4
M: 2/1
Q: 1/2=120
%%staves [1 2 3 4]
V: 1 clef=treble
V: 2 clef=treble
V: 3 clef=treble-8
V: 4 clef=bass
K: C
[V:1] z8 | 
[V:2] z8 | 
[V:3] F6G2 | 
[V:4] z4F,4- | 
[V:1] z8 | 
[V:2] z8 | 
[V:3] A4D4 | 
[V:4] F,2G,2A,4 | 
[V:1] z8 | 
[V:2] z8 | 
[V:3] F6G2 | 
[V:4] D,4F,4- | 
[V:1] z8 | 
[V:2] z8 | 
[V:3] A4D4 | 
[V:4] F,2G,2A,4 | 
[V:1] z8 | 
[V:2] z8 | 
[V:3] A6B2 | 
[V:4] D,4A,4- | 
[V:1] z8 | 
[V:2] z8 | 
[V:3] c4F4 | 
[V:4] A,2B,2C4 | 
[V:1] z8 | 
[V:2] z8 | 
[V:3] A6B2 | 
[V:4] F,4A,4- | 
[V:1] z8 | 
[V:2] z8 | 
[V:3] c4F4 | 
[V:4] A,2B,2C4 | 
[V:1] z8 | 
[V:2] z8 | 
[V:3] c3de2f2- | 
[V:4] F,2C3B,A,G, | 
[V:1] z8 | 
[V:2] z8 | 
[V:3] fed3^c^cB | 
[V:4] F,2G,2E,4 | 
[V:1] F6G2 | 
[V:2] z4F4- | 
[V:3] d8- | 
[V:4] D,8- | 
[V:1] A4D4 | 
[V:2] F2G2A4 | 
[V:3] d8- | 
[V:4] D,8- | 
[V:1] F6G2 | 
[V:2] D4F4- | 
[V:3] d8 | 
[V:4] D,8 | 
[V:1] A4D4 | 
[V:2] F2G2A4 | 
[V:3] z8 | 
[V:4] z8 | 
[V:1] A6B2 | 
[V:2] D4A4- | 
[V:3] z8 | 
[V:4] z8 | 
[V:1] c4F4 | 
[V:2] A2B2c4 | 
[V:3] z8 | 
[V:4] z8 | 
[V:1] A6B2 | 
[V:2] F4A4- | 
[V:3] z8 | 
[V:4] z8 | 
[V:1] c4F4 | 
[V:2] A2B2c4 | 
[V:3] z8 | 
[V:4] z8 | 
[V:1] c3de2f2- | 
[V:2] F2c3BAG | 
[V:3] z8 | 
[V:4] z8 | 
[V:1] fed3^ccB | 
[V:2] F2G2E4 | 
[V:3] z8 | 
[V:4] z8 | 
[V:1] d8- | 
[V:2] D8- | 
[V:3] z8 | 
[V:4] z8 | 
[V:1] d8 | 
[V:2] D8 | 
[V:3] z4A4- | 
[V:4] D,8 | 
[V:1] z8 | 
[V:2] z8 | 
[V:3] A4A4 | 
[V:4] D,4F,4- | 
[V:1] z8 | 
[V:2] z8 | 
[V:3] c6c2 | 
[V:4] F,2F,2F,2F,2 | 
[V:1] z8 | 
[V:2] z8 | 
[V:3] c2c2B2G2 | 
[V:4] E,2C,2D,2E,2 | 
[V:1] z8 | 
[V:2] z8 | 
[V:3] A2B2c4 | 
[V:4] F,2D,2C,2C2- | 
[V:1] z4z2G2 | 
[V:2] z2C2D2E2 | 
[V:3] A2F2_B4 | 
[V:4] C2A,2G,4 | 
[V:1] A3Bc2F2 | 
[V:2] F2D2C2D2- | 
[V:3] A8 | 
[V:4] F,8 | 
[V:1] A4G4 | 
[V:2] DCF4E2 | 
[V:3] z4c4 | 
[V:4] z8 | 
[V:1] F4F4 | 
[V:2] F8 | 
[V:3] d4d4 | 
[V:4] z8 | 
[V:1] G4G4 | 
[V:2] z8 | 
[V:3] e3dc2B2 | 
[V:4] z8 | 
[V:1] A6G2 | 
[V:2] z8 | 
[V:3] A3GF2E2 | 
[V:4] z8 | 
[V:1] F2E2D2G2- | 
[V:2] z8 | 
[V:3] D2C2G3A | 
[V:4] z8 | 
[V:1] GFE2D4 | 
[V:2] z8 | 
[V:3] B2c4B2 | 
[V:4] z4G,4 | 
[V:1] C4C4 | 
[V:2] z8 | 
[V:3] c8 | 
[V:4] A,3G,F,2E,2 | 
[V:1] D4E4 | 
[V:2] z4G4 | 
[V:3] z8 | 
[V:4] D,3F,E,4 | 
[V:1] F3GA2B2- | 
[V:2] A3GF2E2 | 
[V:3] z8 | 
[V:4] D,3E,F,2G,2- | 
[V:1] BAd4^c2 | 
[V:2] D3FE4 | 
[V:3] z8 | 
[V:4] G,F,D,2A,4 | 
[V:1] d8- | 
[V:2] D8- | 
[V:3] z4A4 | 
[V:4] D,8- | 
[V:1] d8- | 
[V:2] D8 | 
[V:3] B4A4 | 
[V:4] D,8 | 
[V:1] d8 | 
[V:2] z8 | 
[V:3] d6d2 | 
[V:4] z4D,4 | 
[V:1] z8 | 
[V:2] z8 | 
[V:3] c4f4 | 
[V:4] E,4D,4 | 
[V:1] z8 | 
[V:2] z8 | 
[V:3] e4d4 | 
[V:4] G,6G,2 | 
[V:1] z8 | 
[V:2] z8 | 
[V:3] z2f3ed2 | 
[V:4] F,4_B,4 | 
[V:1] z8 | 
[V:2] z8 | 
[V:3] c2A2_B4 | 
[V:4] A,4G,4 | 
[V:1] z4A4 | 
[V:2] z8 | 
[V:3] A8 | 
[V:4] F,6F,2 | 
[V:1] B4A4 | 
[V:2] z8 | 
[V:3] z2d2d2d2- | 
[V:4] G,4D,4 | 
[V:1] d6d2 | 
[V:2] z4D4 | 
[V:3] dc_BA_B4 | 
[V:4] z8 | 
[V:1] c4f4 | 
[V:2] E4D4 | 
[V:3] A4z4 | 
[V:4] z8 | 
[V:1] e4d4 | 
[V:2] G6G2 | 
[V:3] z8 | 
[V:4] z8 | 
[V:1] d2d2d4 | 
[V:2] F4_B4 | 
[V:3] z8 | 
[V:4] z8 | 
[V:1] c2f2e2d2- | 
[V:2] A4G4 | 
[V:3] z8 | 
[V:4] z8 | 
[V:1] dc_BAB4 | 
[V:2] G2G2G4 | 
[V:3] z8 | 
[V:4] z8 | 
[V:1] A8 | 
[V:2] F8 | 
[V:3] z2d2f2f2 | 
[V:4] z4z2D,2 | 
[V:1] z8 | 
[V:2] z8 | 
[V:3] f4c3d | 
[V:4] F,2F,2F,4 | 
[V:1] z8 | 
[V:2] z8 | 
[V:3] efg4f2- | 
[V:4] C,D,E,F,G,2A,2- | 
[V:1] z8 | 
[V:2] z8 | 
[V:3] fge2d4 | 
[V:4] A,G,C3B,B,A, | 
[V:1] z4c4 | 
[V:2] z8 | 
[V:3] c2FGABcd | 
[V:4] C4A,4 | 
[V:1] B2A2B4 | 
[V:2] z8 | 
[V:3] e2f4e2 | 
[V:4] G,2F,2G,4 | 
[V:1] A8 | 
[V:2] z4A4 | 
[V:3] f2FGABcd | 
[V:4] F,8 | 
[V:1] z8 | 
[V:2] G2F2G4 | 
[V:3] e2f4e2 | 
[V:4] z4C4 | 
[V:1] z4F4 | 
[V:2] F8 | 
[V:3] f8 | 
[V:4] D2D,E,F,G,A,B, | 
[V:1] E2D2E4 | 
[V:2] z8 | 
[V:3] z8 | 
[V:4] C2D3^CCB, | 
[V:1] DEFGA3B | 
[V:2] z4z2A2 | 
[V:3] z4f4 | 
[V:4] D2D,2F,3G, | 
[V:1] c2d4^c2 | 
[V:2] A2G2A4 | 
[V:3] e2d2e4 | 
[V:4] A,2_B,2A,4 | 
[V:1] d4z2d2 | 
[V:2] F4z2F2 | 
[V:3] d4z2D2 | 
[V:4] D,4z2D,2 | 
[V:1] d2d2d4 | 
[V:2] F2F2F4 | 
[V:3] F2D2F3G | 
[V:4] D,2D,2D,4 | 
[V:1] c8- | 
[V:2] E8- | 
[V:3] A4z2A2- | 
[V:4] A,,8- | 
[V:1] c8 | 
[V:2] E8 | 
[V:3] AGABc2A2- | 
[V:4] A,,8 | 
[V:1] z8 | 
[V:2] z8 | 
[V:3] A2GFE4 | 
[V:4] z4C,4 | 
[V:1] z8 | 
[V:2] z8 | 
[V:3] z4G4 | 
[V:4] D,4E,4 | 
[V:1] z8 | 
[V:2] z8 | 
[V:3] A4B4 | 
[V:4] F,4z2D,2 | 
[V:1] z8 | 
[V:2] z8 | 
[V:3] c2A2B2c2 | 
[V:4] E,2F,2G,4 | 
[V:1] z8 | 
[V:2] z8 | 
[V:3] d4c2A2 | 
[V:4] F,2D,2F,4 | 
[V:1] z8 | 
[V:2] z8 | 
[V:3] c4B2G2 | 
[V:4] E,2C,2D,2E,2 | 
[V:1] z8 | 
[V:2] z8 | 
[V:3] A2B2c4 | 
[V:4] F,4E,4- | 
[V:1] z8 | 
[V:2] z8 | 
[V:3] B6B2 | 
[V:4] E,2E,2E,2G,2- | 
[V:1] z8 | 
[V:2] z8 | 
[V:3] B4z2d2 | 
[V:4] G,2F,E,F,2G,2 | 
[V:1] z8 | 
[V:2] z8 | 
[V:3] e3dc2B2 | 
[V:4] E,4z2G,2 | 
[V:1] z4z2G2 | 
[V:2] z4z2E2 | 
[V:3] A4z4 | 
[V:4] A,3G,F,2E,2 | 
[V:1] A3GF2E2 | 
[V:2] F3ED2^C2 | 
[V:3] z8 | 
[V:4] D,4z4 | 
[V:1] D8 | 
[V:2] D8 | 
[V:3] z8 | 
[V:4] z4z2D,2 | 
[V:1] z8 | 
[V:2] z8 | 
[V:3] z2A2A2A2 | 
[V:4] D,2D,2D,2F,2- | 
[V:1] z8 | 
[V:2] z8 | 
[V:3] A2c4B2 | 
[V:4] F,2E,3C,D,E, | 
[V:1] z8 | 
[V:2] z8 | 
[V:3] A4B4 | 
[V:4] F,G,A,4^G,2 | 
[V:1] z8 | 
[V:2] z8 | 
[V:3] z2A2A2F2 | 
[V:4] A,8 | 
[V:1] z8 | 
[V:2] z8 | 
[V:3] G2A2D4 | 
[V:4] z4z2A,2 | 
[V:1] z8 | 
[V:2] z8 | 
[V:3] z2A2B2c2 | 
[V:4] A,2F,2G,2A,2 | 
[V:1] z8 | 
[V:2] z8 | 
[V:3] d2B2A4 | 
[V:4] D,4z2D,2 | 
[V:1] z8 | 
[V:2] z8 | 
[V:3] z2A2B2c2 | 
[V:4] E,2F,2G,2E,2 | 
[V:1] z4z2A2 | 
[V:2] z2D2E2F2 | 
[V:3] d2B2A4 | 
[V:4] D,4z4 | 
[V:1] B2c2d2B2 | 
[V:2] G2E2D4 | 
[V:3] z8 | 
[V:4] z8 | 
[V:1] A4G2F2 | 
[V:2] F4E2D2- | 
[V:3] z8 | 
[V:4] z8 | 
[V:1] E4D2A2 | 
[V:2] D^CCB,D2F2 | 
[V:3] z8 | 
[V:4] z8 | 
[V:1] G2F2E4 | 
[V:2] E2D3^CCB, | 
[V:3] z8 | 
[V:4] z8 | 
[V:1] D8 | 
[V:2] D4F4- | 
[V:3] z8 | 
[V:4] D,4D,2D,2 | 
[V:1] z8 | 
[V:2] F2EDE4 | 
[V:3] z8 | 
[V:4] D,4C,4 | 
[V:1] z8 | 
[V:2] z8 | 
[V:3] A4A2A2 | 
[V:4] D,4F,4- | 
[V:1] z8 | 
[V:2] z8 | 
[V:3] A4G4 | 
[V:4] F,2E,D,E,4 | 
[V:1] A4A2A2 | 
[V:2] E4E2E2 | 
[V:3] A4c4- | 
[V:4] A,,8 | 
[V:1] A4G4 | 
[V:2] E4D4 | 
[V:3] c2BAB4 | 
[V:4] z8 | 
[V:1] A4c4- | 
[V:2] E3DE2F2- | 
[V:3] A8 | 
[V:4] z8 | 
[V:1] c2BAB4 | 
[V:2] FEA4G2 | 
[V:3] z8 | 
[V:4] z8 | 
[V:1] A8 | 
[V:2] A2F4ED | 
[V:3] z8 | 
[V:4] D,4D,2D,2 | 
[V:1] z8 | 
[V:2] F4E4 | 
[V:3] z8 | 
[V:4] D,4C,4 | 
[V:1] z8 | 
[V:2] z8 | 
[V:3] A4A2A2 | 
[V:4] D,4F,4- | 
[V:1] z8 | 
[V:2] z8 | 
[V:3] A4G4 | 
[V:4] F,2E,D,E,4 | 
[V:1] A4A2A2 | 
[V:2] E4E2E2 | 
[V:3] A4c4- | 
[V:4] A,,8 | 
[V:1] A4G4 | 
[V:2] E4D4 | 
[V:3] c2BAB4 | 
[V:4] z8 | 
[V:1] A4c4- | 
[V:2] E3DE2F2- | 
[V:3] A8 | 
[V:4] z8 | 
[V:1] c2BAB4 | 
[V:2] FEA4^G2 | 
[V:3] z4e4 | 
[V:4] z8 | 
[V:1] A8 | 
[V:2] A8 | 
[V:3] f4e4 | 
[V:4] z4A,4 | 
[V:1] z8 | 
[V:2] z8 | 
[V:3] z2d2c2c2 | 
[V:4] B,4A,4 | 
[V:1] z8 | 
[V:2] z8 | 
[V:3] f4e4 | 
[V:4] z2D,2C,2C,2 | 
[V:1] z8 | 
[V:2] z8 | 
[V:3] d3cA2c2 | 
[V:4] F,6E,2 | 
[V:1] z8 | 
[V:2] z8 | 
[V:3] B2A4^G2 | 
[V:4] D,2C,2B,,4 | 
[V:1] z8 | 
[V:2] z4E4 | 
[V:3] A8- | 
[V:4] A,,8- | 
[V:1] z4E4 | 
[V:2] F4E4 | 
[V:3] A8 | 
[V:4] A,,8 | 
[V:1] F4E4 | 
[V:2] z2A2G2G2 | 
[V:3] z8 | 
[V:4] z8 | 
[V:1] z2A2G2G2 | 
[V:2] c4B4 | 
[V:3] z8 | 
[V:4] z8 | 
[V:1] c6B2 | 
[V:2] A3GE2G2 | 
[V:3] z8 | 
[V:4] z8 | 
[V:1] A2G2F4 | 
[V:2] F2E4D2 | 
[V:3] z4D4 | 
[V:4] z8 | 
[V:1] E6F2 | 
[V:2] E2C4B,A, | 
[V:3] A4A4 | 
[V:4] z4A,,4 | 
[V:1] G8 | 
[V:2] B,8 | 
[V:3] G8 | 
[V:4] E,4E,4 | 
[V:1] z8 | 
[V:2] z8 | 
[V:3] d8 | 
[V:4] D,8 | 
[V:1] z8 | 
[V:2] z8 | 
[V:3] c4z2c2 | 
[V:4] A,8 | 
[V:1] z4D4 | 
[V:2] z8 | 
[V:3] B2G2B4 | 
[V:4] G,4z2G,2 | 
[V:1] A4A4 | 
[V:2] z4A,4 | 
[V:3] A3GABc2- | 
[V:4] F,2D,2F,4 | 
[V:1] G8 | 
[V:2] E4E4 | 
[V:3] c2BAG3F | 
[V:4] E,6D,C, | 
[V:1] d8 | 
[V:2] D8 | 
[V:3] G2A2D3E | 
[V:4] B,,3A,,B,,4 | 
[V:1] c4z2c2 | 
[V:2] A8 | 
[V:3] F2E2A4 | 
[V:4] A,,8 | 
[V:1] B2G2B4 | 
[V:2] G4z2G2 | 
[V:3] E8 | 
[V:4] z8 | 
[V:1] A3GABc2- | 
[V:2] F2D2F4 | 
[V:3] z8 | 
[V:4] z8 | 
[V:1] c2B2G2A2- | 
[V:2] E3DE2F2- | 
[V:3] z8 | 
[V:4] z8 | 
[V:1] A2G2F4 | 
[V:2] FEE3DDC | 
[V:3] z8 | 
[V:4] z8 | 
[V:1] E8 | 
[V:2] E8 | 
[V:3] z8 | 
[V:4] z4z2E,2 | 
[V:1] z8 | 
[V:2] z8 | 
[V:3] z2B2B2B2 | 
[V:4] E,2E,2G,4 | 
[V:1] z8 | 
[V:2] z8 | 
[V:3] d4A4 | 
[V:4] D,4z2A,2- | 
[V:1] z8 | 
[V:2] z4z2E2 | 
[V:3] c2B2c4 | 
[V:4] A,2G,2A,4 | 
[V:1] z2B2B2B2 | 
[V:2] E2E2G4 | 
[V:3] B8 | 
[V:4] E,8 | 
[V:1] d4A4 | 
[V:2] D4F4 | 
[V:3] z8 | 
[V:4] z8 | 
[V:1] c4B3A | 
[V:2] E3DEFG2- | 
[V:3] z8 | 
[V:4] z8 | 
[V:1] Bcd3^ccB | 
[V:2] GFD2E4 | 
[V:3] z4A4 | 
[V:4] z8 | 
[V:1] d8- | 
[V:2] D8 | 
[V:3] B4G4 | 
[V:4] z8 | 
[V:1] d8 | 
[V:2] z2D2D2D2 | 
[V:3] d8 | 
[V:4] z4D,4 | 
[V:1] z2A2A2A2 | 
[V:2] F4D4 | 
[V:3] d8 | 
[V:4] D,4D,4 | 
[V:1] c8 | 
[V:2] E6F2 | 
[V:3] c4z4 | 
[V:4] A,8 | 
[V:1] B8 | 
[V:2] G2D2G4 | 
[V:3] d4d4- | 
[V:4] G,6F,2 | 
[V:1] A4z4 | 
[V:2] F8- | 
[V:3] d2d2d2d2 | 
[V:4] D,8- | 
[V:1] A4A4- | 
[V:2] F8 | 
[V:3] d2d2d2d2 | 
[V:4] D,8 | 
[V:1] A2A2A2A2 | 
[V:2] z8 | 
[V:3] d4c4 | 
[V:4] z8 | 
[V:1] A2A2A2A2 | 
[V:2] z8 | 
[V:3] d4f3e | 
[V:4] z8 | 
[V:1] A4G4 | 
[V:2] z8 | 
[V:3] d2c2B4 | 
[V:4] z8 | 
[V:1] A4c3B | 
[V:2] z8 | 
[V:3] ABcde2f2- | 
[V:4] z8 | 
[V:1] A2G2F4 | 
[V:2] z8 | 
[V:3] fee4d2 | 
[V:4] z8 | 
[V:1] E8 | 
[V:2] z8 | 
[V:3] e2A2c2A2 | 
[V:4] A,4A,4- | 
[V:1] z8 | 
[V:2] z8 | 
[V:3] c3de2A2 | 
[V:4] A,2A,2A,2A,2 | 
[V:1] z8 | 
[V:2] E4E4- | 
[V:3] c6BA | 
[V:4] A,2A,2A,2A,2 | 
[V:1] z8 | 
[V:2] E2E2E2E2 | 
[V:3] c4B4 | 
[V:4] A,4G,4 | 
[V:1] z8 | 
[V:2] E2E2E2E2 | 
[V:3] z2c2A2c2- | 
[V:4] A,4C3B, | 
[V:1] z8 | 
[V:2] E4D4 | 
[V:3] cBB4A2 | 
[V:4] A,2G,2F,4 | 
[V:1] z4B4 | 
[V:2] E4G3F | 
[V:3] c2B2e4 | 
[V:4] E,4z2E,2 | 
[V:1] c2B2A4 | 
[V:2] E2D2C4 | 
[V:3] z4e4- | 
[V:4] E,4A,,4 | 
[V:1] G8- | 
[V:2] B,8- | 
[V:3] e2e2e4 | 
[V:4] E,8- | 
[V:1] G8 ||  
[V:2] B,8 ||  
[V:3] e8 ||  
[V:4] E,8 ||  
[V:1] [M:2/1]z4A4 | 
[V:2] [M:2/1]z8 | 
[V:3] [M:2/1]d4d2d2 | 
[V:4] [M:2/1]z8 | 
[V:1] A2A2A2G2 | 
[V:2] z8 | 
[V:3] d2c2d2e2 | 
[V:4] z8 | 
[V:1] A2B2c4- | 
[V:2] z8 | 
[V:3] f6ed | 
[V:4] z8 | 
[V:1] c2BAG4 | 
[V:2] z8 | 
[V:3] c4c2c2 | 
[V:4] z8 | 
[V:1] G2G2G2G2 | 
[V:2] z8 | 
[V:3] c2c2c4 | 
[V:4] z8 | 
[V:1] G4D3E | 
[V:2] z8 | 
[V:3] G3ABcd2- | 
[V:4] z8 | 
[V:1] FGA4G2- | 
[V:2] z8 | 
[V:3] d2ABcde2- | 
[V:4] z8 | 
[V:1] G2F2E4 | 
[V:2] z8 | 
[V:3] e2d3^c^cB | 
[V:4] z8 | 
[V:1] D4z4 | 
[V:2] z8 | 
[V:3] d8- | 
[V:4] z8 | 
[V:1] D6E2 | 
[V:2] z4D4- | 
[V:3] d8 | 
[V:4] z8 | 
[V:1] F2G2A4 | 
[V:2] D2E2F2G2 | 
[V:3] z8 | 
[V:4] D,6E,2 | 
[V:1] z4c4 | 
[V:2] A4z4 | 
[V:3] A6B2 | 
[V:4] F,2G,2A,4 | 
[V:1] c4c4 | 
[V:2] A4A2A2 | 
[V:3] c2d2e4 | 
[V:4] z4A,4 | 
[V:1] c8 | 
[V:2] A4E4 | 
[V:3] z2e2e2e2 | 
[V:4] A,2A,2A,4 | 
[V:1] B4B4 | 
[V:2] z2G2G2G2 | 
[V:3] e4B4 | 
[V:4] E,4z2G,2 | 
[V:1] B2B2B4 | 
[V:2] G4D3E | 
[V:3] z2d2d2d2 | 
[V:4] G,2G,2G,4 | 
[V:1] A3GABc2- | 
[V:2] FGF4ED | 
[V:3] d4c3B | 
[V:4] D,3E,F,G,A,2- | 
[V:1] c2B2A4 | 
[V:2] C2E4D2 | 
[V:3] A2G2A4 | 
[V:4] A,G,E,2F,4 | 
[V:1] G4z4 | 
[V:2] E4z4 | 
[V:3] B4z4 | 
[V:4] E,4z4 | 
[V:1] G6G2 | 
[V:2] E6E2 | 
[V:3] c6c2 | 
[V:4] C,6C,2 | 
[V:1] G2G2F4 | 
[V:2] E2E2D4 | 
[V:3] c2c2F3G | 
[V:4] C,2C,2D,4 | 
[V:1] E2A,2C3D | 
[V:2] C4z2A,2 | 
[V:3] A8- | 
[V:4] A,,8- | 
[V:1] E2A,2z2E2 | 
[V:2] C3DE2A,2 | 
[V:3] A8 | 
[V:4] A,,8 | 
[V:1] F2G2A2DE | 
[V:2] z2E2F3G | 
[V:3] z8 | 
[V:4] z8 | 
[V:1] FGAFG2A2- | 
[V:2] A2D2E2F2- | 
[V:3] z8 | 
[V:4] z8 | 
[V:1] AGF2E4 | 
[V:2] FED3^CCB, | 
[V:3] z8 | 
[V:4] z8 | 
[V:1] D8 | 
[V:2] D8 | 
[V:3] z8 | 
[V:4] D,4G,4 | 
[V:1] z8 | 
[V:2] z8 | 
[V:3] A4d4 | 
[V:4] F,4D,4 | 
[V:1] z8 | 
[V:2] z8 | 
[V:3] c4A4 | 
[V:4] A,3B,C2F,2- | 
[V:1] z8 | 
[V:2] z8 | 
[V:3] c6c2 | 
[V:4] F,2E,D,C,D,E,F, | 
[V:1] z8 | 
[V:2] z8 | 
[V:3] c3AB4 | 
[V:4] E,A,,A,3^G,G,^F, | 
[V:1] z8 | 
[V:2] z8 | 
[V:3] A8 | 
[V:4] A,4D,4 | 
[V:1] z8 | 
[V:2] z8 | 
[V:3] z4A4 | 
[V:4] G,4F,4 | 
[V:1] z8 | 
[V:2] z8 | 
[V:3] d4c4 | 
[V:4] D,4A,3B, | 
[V:1] z8 | 
[V:2] z8 | 
[V:3] A4c4- | 
[V:4] C2F,4E,D, | 
[V:1] z8 | 
[V:2] z8 | 
[V:3] c2c2c3A | 
[V:4] C,D,E,F,E,A,,A,2- | 
[V:1] z8 | 
[V:2] z8 | 
[V:3] B4A4 | 
[V:4] A,^G,G,^F,A,4 | 
[V:1] z8 | 
[V:2] z8 | 
[V:3] z4D4 | 
[V:4] D,4A,4- | 
[V:1] z8 | 
[V:2] z8 | 
[V:3] A6G2 | 
[V:4] A,2G,2F,2E,2 | 
[V:1] z8 | 
[V:2] z8 | 
[V:3] F2E2D2d2- | 
[V:4] D,4F,4 | 
[V:1] z8 | 
[V:2] z8 | 
[V:3] d2^cB^c4 | 
[V:4] E,3D,E,4 | 
[V:1] z4D4 | 
[V:2] D4A4- | 
[V:3] d8 | 
[V:4] D,8 | 
[V:1] A6G2 | 
[V:2] A2G2F2E2 | 
[V:3] z8 | 
[V:4] z8 | 
[V:1] F2E2D2d2- | 
[V:2] D4F4 | 
[V:3] z8 | 
[V:4] z8 | 
[V:1] d2^cBc4 | 
[V:2] E3DE4 | 
[V:3] z8 | 
[V:4] z4z2A,,2 | 
[V:1] d8 | 
[V:2] D8 | 
[V:3] z4z2A2 | 
[V:4] B,,2C,2D,4- | 
[V:1] z8 | 
[V:2] z8 | 
[V:3] B2c2d4- | 
[V:4] D,2A,,2B,,2C,2 | 
[V:1] z8 | 
[V:2] z8 | 
[V:3] d2A2B2c2 | 
[V:4] D,3F,E,4 | 
[V:1] z2A2B2c2 | 
[V:2] z4z2A,2 | 
[V:3] d3fe4 | 
[V:4] D,4z4 | 
[V:1] d6A2 | 
[V:2] B,2C2D4- | 
[V:3] d8 | 
[V:4] z8 | 
[V:1] B2c2F2c2- | 
[V:2] D2C2D2E2 | 
[V:3] z8 | 
[V:4] z8 | 
[V:1] c2A2G4 | 
[V:2] C2F3EED | 
[V:3] z8 | 
[V:4] z8 | 
[V:1] F4A4 | 
[V:2] F8 | 
[V:3] z4c4 | 
[V:4] F,8 | 
[V:1] A4A4- | 
[V:2] z2F4F2 | 
[V:3] c4c4- | 
[V:4] F,4F,4- | 
[V:1] A2A2G4 | 
[V:2] F2F2E3C | 
[V:3] c2c2c4 | 
[V:4] F,2F,2C,4 | 
[V:1] c3BA2G2 | 
[V:2] C4z2C2 | 
[V:3] z2A2F2G2 | 
[V:4] z2F,4E,2 | 
[V:1] F2E2D4 | 
[V:2] D2E2F3D | 
[V:3] A4D4 | 
[V:4] D,2C,2_B,,4 | 
[V:1] C2cBAGA2- | 
[V:2] F2E4F2- | 
[V:3] z4z2A2 | 
[V:4] A,,8 | 
[V:1] A2GFE2cB | 
[V:2] F2EDC2AG | 
[V:3] F2G2A4 | 
[V:4] z8 | 
[V:1] AGA4GF | 
[V:2] FEF4ED | 
[V:3] D4z4 | 
[V:4] z2A,2F,2G,2 | 
[V:1] E2cBAGA2- | 
[V:2] C2AGFEF2- | 
[V:3] z4z2A2 | 
[V:4] A,4D,4 | 
[V:1] A2GFE4 | 
[V:2] F2ED^CDEC | 
[V:3] F2G2A4 | 
[V:4] z8 | 
[V:1] D8 | 
[V:2] D8- | 
[V:3] D8 | 
[V:4] z8 | 
[V:1] z8 | 
[V:2] D8 | 
[V:3] z8 | 
[V:4] (3:2:2D,8D,4 | 
[V:1] z8 | 
[V:2] z8 | 
[V:3] (3:2:2A8A4 | 
[V:4] (3D,4C,4F,4- | 
[V:1] z8 | 
[V:2] z8 | 
[V:3] (3A4G4c4- | 
[V:4] (3F,4E,4z4 | 
[V:1] z8 | 
[V:2] z8 | 
[V:3] (3c4B4z4 | 
[V:4] (3:2:2E,8E,4 | 
[V:1] z8 | 
[V:2] z8 | 
[V:3] (3:2:2B8B4 | 
[V:4] (3E,4D,4G,4- | 
[V:1] z8 | 
[V:2] z8 | 
[V:3] (3B4A4d4- | 
[V:4] (3G,4F,4z4 | 
[V:1] z8 | 
[V:2] z8 | 
[V:3] (3d4c4z4 | 
[V:4] (3:2:2F,8F,4 | 
[V:1] z8 | 
[V:2] z8 | 
[V:3] (3:2:2c8c4 | 
[V:4] (3:2:2E,4A,8 | 
[V:1] z8 | 
[V:2] z8 | 
[V:3] (3:2:2B4e8 | 
[V:4] (3:2:2G,8z4 | 
[V:1] z8 | 
[V:2] z8 | 
[V:3] (3:2:2d8z4 | 
[V:4] (3:2:2G,8F,4 | 
[V:1] z8 | 
[V:2] z8 | 
[V:3] (3:2:2d8c4 | 
[V:4] (3:2:2G,4E,8 | 
[V:1] z8 | 
[V:2] z4D4 | 
[V:3] (3:2:2d4B8 | 
[V:4] D,4z4 | 
[V:1] A4c2c2 | 
[V:2] F2F2E4 | 
[V:3] A8 | 
[V:4] z8 | 
[V:1] B4A4 | 
[V:2] D4F4 | 
[V:3] z8 | 
[V:4] z8 | 
[V:1] c4B4 | 
[V:2] E4D4 | 
[V:3] z8 | 
[V:4] z4z2D,2 | 
[V:1] A4z4 | 
[V:2] z8 | 
[V:3] z2A2c2c2 | 
[V:4] F,2F,2E,4 | 
[V:1] z8 | 
[V:2] z8 | 
[V:3] B4A4 | 
[V:4] D,4F,4 | 
[V:1] z8 | 
[V:2] z4z2D2 | 
[V:3] c4B4 | 
[V:4] E,4D,4 | 
[V:1] z2A2G2E2 | 
[V:2] C2A,2B,2C2 | 
[V:3] A4z4 | 
[V:4] z8 | 
[V:1] F2G2A4 | 
[V:2] D4A,4 | 
[V:3] z8 | 
[V:4] z4z2D,2 | 
[V:1] E4z4 | 
[V:2] z8 | 
[V:3] z2A2G2E2 | 
[V:4] C,2A,,2B,,2C,2 | 
[V:1] z4A4 | 
[V:2] z8 | 
[V:3] F2G2A4 | 
[V:4] D,4A,,4 | 
[V:1] G2E2F2G2 | 
[V:2] E4D2B,2 | 
[V:3] E4z4 | 
[V:4] z8 | 
[V:1] E2F2G2E2 | 
[V:2] C2D2B,2C2 | 
[V:3] z8 | 
[V:4] z8 | 
[V:1] F2G2A2F2 | 
[V:2] D2B,2C2D2 | 
[V:3] z8 | 
[V:4] z8 | 
[V:1] E4D4 | 
[V:2] E2C2B,4 | 
[V:3] z4z2d2 | 
[V:4] z8 | 
[V:1] z8 | 
[V:2] A,4z4 | 
[V:3] c2A2B2c2 | 
[V:4] A,4G,2E,2 | 
[V:1] z8 | 
[V:2] z8 | 
[V:3] A2B2c2A2 | 
[V:4] F,2G,2E,2F,2 | 
[V:1] z8 | 
[V:2] z8 | 
[V:3] B2c2d2B2 | 
[V:4] G,2E,2F,2G,2 | 
[V:1] z8 | 
[V:2] z8 | 
[V:3] A4G4 | 
[V:4] A,2F,2E,4 | 
[V:1] z8 | 
[V:2] D6D2 | 
[V:3] z8 | 
[V:4] D,8 | 
[V:1] A6A2 | 
[V:2] C4D4 | 
[V:3] z8 | 
[V:4] z8 | 
[V:1] G4A4 | 
[V:2] B,4A,4 | 
[V:3] z8 | 
[V:4] z8 | 
[V:1] F4E4 | 
[V:2] z8 | 
[V:3] z8 | 
[V:4] A,6A,2 | 
[V:1] z8 | 
[V:2] z8 | 
[V:3] e6e2 | 
[V:4] G,4A,4 | 
[V:1] z8 | 
[V:2] z8 | 
[V:3] d4e4 | 
[V:4] F,4E,4 | 
[V:1] (3G4G4G4 | 
[V:2] (3E4E4E4 | 
[V:3] c4B4 | 
[V:4] (3E,4E,4E,4 | 
[V:1] (3:2:2G8F4 | 
[V:2] (3:2:2E8F4 | 
[V:3] (3B4B4B4 | 
[V:4] (3:2:2E,8D,4 | 
[V:1] (3:2:2G4A8 | 
[V:2] (3E4D6C2 | 
[V:3] (3:2:2B8A4 | 
[V:4] (3:2:2E,4F,8 | 
[V:1] G8 | 
[V:2] E8 | 
[V:3] (3:2:2B4c8 | 
[V:4] E,4z4 | 
[V:1] z8 | 
[V:2] z4D4- | 
[V:3] B8 | 
[V:4] G,6G,2 | 
[V:1] z8 | 
[V:2] D2D2D2C2 | 
[V:3] z8 | 
[V:4] G,2F,2G,2E,2 | 
[V:1] z4A4- | 
[V:2] D2B,2A,4 | 
[V:3] d6d2 | 
[V:4] D,8 | 
[V:1] A2A2A2G2 | 
[V:2] z8 | 
[V:3] d2c2d2B2 | 
[V:4] z8 | 
[V:1] A2F2E4 | 
[V:2] z8 | 
[V:3] A4z4 | 
[V:4] z8 | 
[V:1] (3:2:2D8E4 | 
[V:2] (3:2:2F8E4 | 
[V:3] z8 | 
[V:4] (3:2:2D,8C,4 | 
[V:1] (3:2:2F4G8 | 
[V:2] (3D4C6B,2 | 
[V:3] (3:2:2A8G4 | 
[V:4] (3:2:2D,4E,8 | 
[V:1] F4z4 | 
[V:2] D4z4 | 
[V:3] (3:2:2A4_B8 | 
[V:4] D,4z4 | 
[V:1] (3:2:2D8E4 | 
[V:2] (3:2:2F8E4 | 
[V:3] A4z4 | 
[V:4] (3:2:2D,8C,4 | 
[V:1] (3:2:2F4G8 | 
[V:2] (3D4C6B,2 | 
[V:3] (3:2:2A8G4 | 
[V:4] (3:2:2D,4E,8 | 
[V:1] F8- | 
[V:2] D8- | 
[V:3] (3:2:2A4_B8 | 
[V:4] D,8- | 
[V:1] F8 | 
[V:2] D8 | 
[V:3] A4z2D2- | 
[V:4] D,8- | 
[V:1] z8 | 
[V:2] z4D4 | 
[V:3] DEF2D2d2- | 
[V:4] D,8 | 
[V:1] A4A2A2 | 
[V:2] D2D2E2F2 | 
[V:3] d2cBA4 | 
[V:4] z8 | 
[V:1] B2c2d4 | 
[V:2] G4z4 | 
[V:3] G8 | 
[V:4] G,3A,B,2G,A, | 
[V:1] d8 | 
[V:2] D4D2D2 | 
[V:3] z8 | 
[V:4] B,CD4CB, | 
[V:1] c4B4- | 
[V:2] E2F2G4 | 
[V:3] z8 | 
[V:4] A,4G,4 | 
[V:1] B2B2B4 | 
[V:2] G8 | 
[V:3] z8 | 
[V:4] z8 | 
[V:1] z2A2B2c2- | 
[V:2] F4E4- | 
[V:3] z8 | 
[V:4] z8 | 
[V:1] c2BAG4 | 
[V:2] E2E2E4 | 
[V:3] z8 | 
[V:4] z8 | 
[V:1] F2A2B2c2- | 
[V:2] F3DD2E2- | 
[V:3] z8 | 
[V:4] z8 | 
[V:1] c2BAG4 | 
[V:2] ECF3EED | 
[V:3] z8 | 
[V:4] z8 | 
[V:1] F8 | 
[V:2] F4z4 | 
[V:3] z8 | 
[V:4] z8 | 
[V:1] z4c4 | 
[V:2] F4F2F2 | 
[V:3] z8 | 
[V:4] z8 | 
[V:1] c2c2c2c2 | 
[V:2] F2F2E2F2 | 
[V:3] z8 | 
[V:4] z8 | 
[V:1] B2c2A2G2- | 
[V:2] D2C4E2- | 
[V:3] z8 | 
[V:4] z8 | 
[V:1] G2B3AA2- | 
[V:2] EDD4C2 | 
[V:3] z8 | 
[V:4] z8 | 
[V:1] AGFEF4 | 
[V:2] D8 | 
[V:3] z4A4 | 
[V:4] D,4D,2D,2 | 
[V:1] z8 | 
[V:2] z8 | 
[V:3] A2A2A4 | 
[V:4] D,4C,3D, | 
[V:1] z8 | 
[V:2] z8 | 
[V:3] G3ABcd2 | 
[V:4] E,F,G,4F,2 | 
[V:1] z8 | 
[V:2] z8 | 
[V:3] c2f3eed | 
[V:4] A,3_B,G,4 | 
[V:1] z4A4 | 
[V:2] z4F4 | 
[V:3] f8 | 
[V:4] F,8 | 
[V:1] A2A2A4 | 
[V:2] F2F2F4 | 
[V:3] z8 | 
[V:4] z8 | 
[V:1] G2c3BAG | 
[V:2] E4C4 | 
[V:3] z8 | 
[V:4] z8 | 
[V:1] F2A2G4 | 
[V:2] D4E4 | 
[V:3] z8 | 
[V:4] z8 | 
[V:1] F8 | 
[V:2] F6F2- | 
[V:3] z4d4- | 
[V:4] z4_B,4- | 
[V:1] z8 | 
[V:2] F2F2F2F2 | 
[V:3] d2d2c2A2 | 
[V:4] B,2_B,2A,2F,2 | 
[V:1] z8 | 
[V:2] E4C4 | 
[V:3] B4G4 | 
[V:4] G,3F,E,4 | 
[V:1] z4A4- | 
[V:2] D4F4- | 
[V:3] A4z2d2- | 
[V:4] D,4z2D,2- | 
[V:1] A2A2A2A2 | 
[V:2] F2F2F2F2 | 
[V:3] d2d2d2d2 | 
[V:4] D,2D,2D,2D,2 | 
[V:1] G3FE4 | 
[V:2] E4C4 | 
[V:3] G4A4 | 
[V:4] E,4A,,4 | 
[V:1] D4z4 | 
[V:2] D8 | 
[V:3] F6D2 | 
[V:4] D,8 | 
[V:1] D3EF2D2 | 
[V:2] z2D3EF2 | 
[V:3] D8 | 
[V:4] z8 | 
[V:1] z8 | 
[V:2] D4z4 | 
[V:3] z2D3EF2 | 
[V:4] D,3E,F,2D,2 | 
[V:1] D3EF2D2 | 
[V:2] z2D3EF2 | 
[V:3] D4z4 | 
[V:4] z8 | 
[V:1] z8 | 
[V:2] D4z4 | 
[V:3] z2D3EF2 | 
[V:4] D,3E,F,2D,2 | 
[V:1] F3GA2F2 | 
[V:2] z2F3GA2 | 
[V:3] D4z4 | 
[V:4] z8 | 
[V:1] z8 | 
[V:2] F4z4 | 
[V:3] z2F3GA2 | 
[V:4] F,3G,A,2F,2 | 
[V:1] A3Bc2A2 | 
[V:2] z2A3Bc2 | 
[V:3] F4z4 | 
[V:4] z8 | 
[V:1] z8 | 
[V:2] A4z4 | 
[V:3] z2A3Bc2 | 
[V:4] A,3B,C2A,2 | 
[V:1] c3de2f2- | 
[V:2] z2c3BAG | 
[V:3] A4z4 | 
[V:4] z8 | 
[V:1] fed3^ccB | 
[V:2] F2G2E4 | 
[V:3] z8 | 
[V:4] z8 | 
[V:1] d4z4 | 
[V:2] D8 | 
[V:3] f6f2 | 
[V:4] D6D2 | 
[V:1] A3Bc2A2 | 
[V:2] z2A3Bc2 | 
[V:3] f4e4 | 
[V:4] D4A,4 | 
[V:1] c3de2f2- | 
[V:2] A2c3BAG | 
[V:3] z4c4 | 
[V:4] z4A,4 | 
[V:1] fed4cB | 
[V:2] F4G4 | 
[V:3] d4d4 | 
[V:4] _B,4B,4 | 
[V:1] c8- | 
[V:2] A8- | 
[V:3] e2ABcdef | 
[V:4] A,8- | 
[V:1] c8- | 
[V:2] A8- | 
[V:3] e2f4ed | 
[V:4] A,8- | 
[V:1] c8 |]  
[V:2] A8 |]  
[V:3] e8 |]  
[V:4] A,8 |]  



